src/assets/showcase/images/primeng-text.svg

<svg height="70" viewBox="0 0 407 70" width="407" xmlns="http://www.w3.org/2000/svg"><g fill="none" fill-rule="evenodd"><g fill="#404c51"><path d="m13.439 68.154h-13.439v-67.154h26.871c2.464 0 4.84.324 7.13.96 2.267.642 4.395 1.549 6.39 2.72 1.977 1.168 3.787 2.573 5.429 4.215 1.643 1.64 3.048 3.458 4.216 5.45 1.174 2.003 2.07 4.14 2.711 6.421.648 2.281.961 4.646.961 7.116 0 3.684-.706 7.158-2.105 10.419-1.399 3.264-3.33 6.112-5.752 8.543-2.447 2.437-5.298 4.356-8.547 5.762-3.267 1.405-6.742 2.108-10.432 2.108h-13.432v13.44zm0-53.709v26.879h13.432c1.851 0 3.573-.355 5.198-1.055 1.626-.703 3.054-1.66 4.262-2.879 1.226-1.221 2.175-2.649 2.88-4.285.705-1.637 1.058-3.379 1.058-5.221 0-1.845-.353-3.58-1.058-5.222-.705-1.639-1.654-3.067-2.88-4.284-1.208-1.218-2.636-2.174-4.262-2.883-1.625-.702-3.348-1.049-5.198-1.049h-13.432z"/><path d="m75.444 68.154h-13.444v-67.154h26.883c2.451 0 4.833.324 7.124.96 2.267.642 4.389 1.549 6.389 2.72 1.979 1.168 3.776 2.573 5.418 4.215 1.648 1.64 3.048 3.458 4.222 5.45 1.174 2.003 2.076 4.14 2.712 6.421.647 2.281.972 4.646.972 7.116 0 2.307-.302 4.559-.885 6.742-.572 2.188-1.394 4.265-2.47 6.23-1.087 1.963-2.399 3.773-3.961 5.433-1.562 1.651-3.307 3.088-5.245 4.305l7.443 17.561h-14.276l-5.853-13.531-15.028.092v13.44zm0-53.709v26.879h13.438c1.839 0 3.562-.355 5.198-1.055 1.613-.703 3.041-1.66 4.256-2.879 1.22-1.221 2.186-2.649 2.88-4.285.711-1.637 1.052-3.379 1.052-5.221 0-1.845-.341-3.58-1.052-5.222-.694-1.639-1.66-3.067-2.88-4.284-1.215-1.218-2.643-2.174-4.256-2.883-1.637-.702-3.359-1.049-5.198-1.049h-13.438z"/><path d="m137.443 68.154h-13.443v-67.154h13.443z"/><path d="m273.033 68.154h-46.033v-67.154h46.033v13.444h-32.596v13.438h22.049v13.44h-22.049v13.392h32.596z"/><path d="m202.854 0c-2.089 0-3.476.995-4.373 2.691l-15.194 28.38c-.399.795-.701 1.292-1.099 1.292-.395 0-.694-.498-1.094-1.292l-15.196-28.38c-.896-1.696-2.285-2.691-4.372-2.691h-6.952c-2.088 0-3.574 1.292-3.574 3.385v59.793 3.564 1.391h1.688 10.729 1.585v-1.989-2.966-32.705c0-.697.3-.798.496-.798.302 0 .498.2.793.696l8.944 16.431c.694 1.195 1.689 1.695 2.984 1.695h7.938c1.296 0 2.29-.5 2.984-1.695l8.934-16.431c.306-.497.504-.696.804-.696.196 0 .498.101.498.798v32.705 2.966 1.989h1.583 10.729 1.689v-1.391-3.564-59.694c.002-2.091-1.485-3.484-3.579-3.484z"/></g><path d="m339.736264 68.288491h-14.386374l-25.905494-44.296353v44.296353h-13.444396v-67.288491h14.384176l25.90989 44.340818v-44.340818h13.442198z" fill="#dd0031"/><path d="m393.133626 31.352956v.073082h-12.840439v13.447924h12.840439v8.94239c-1.440439.723774-2.953406 1.286415-4.547692 1.692327-1.590769.405912-3.232088.61283-4.919121.61283-2.935824 0-5.687033-.564842-8.265934-1.691886-2.580659-1.125283-4.833846-2.658239-6.77011-4.597107-1.938901-1.939308-3.46989-4.208805-4.58989-6.803648-1.125275-2.597484-1.689231-5.381635-1.689231-8.351572 0-2.940881.563956-5.70434 1.689231-8.281573 1.12044-2.582515 2.650989-4.834842 4.58989-6.758742 1.936264-1.924339 4.189451-3.44761 6.77011-4.574654 2.578462-1.126163 5.33011-1.688365 8.265934-1.688365s5.73011.586415 8.386813 1.758805c2.653187 1.17283 4.994726 2.791636 7.024176 4.856856l7.029451-11.730944c-3.122638-2.66044-6.607033-4.700566-10.443956-6.122578-3.846594-1.424654-7.843077-2.136101-11.996923-2.136101-3.185495 0-6.254506.414717-9.204836 1.24327-2.953406.828114-5.70989 1.99346-8.270769 3.496038-2.557802 1.501698-4.89934 3.30717-7.024615 5.420378-2.122198 2.110566-3.937143 4.455786-5.432528 7.036981-1.500659 2.580754-2.665934 5.342452-3.492307 8.280251-.828572 2.94044-1.241319 6.006793-1.241319 9.199497 0 3.191824.412747 6.270943 1.241319 9.241761.826373 2.973459 1.991648 5.746604 3.492307 8.32912 1.495385 2.579434 3.31033 4.926855 5.432528 7.03566 2.125714 2.113208 4.466813 3.928365 7.024615 5.441069 2.560879 1.521069 5.317802 2.6939 8.270769 3.523333 2.95033.829434 6.019341 1.242831 9.204836 1.242831 4.153846 0 8.150329-.711007 11.996923-2.133459 3.836923-1.424214 7.321318-3.46434 10.443956-6.12478v-16.358868-13.447925h-12.905934z" fill="#dd0031"/></g></svg>

<?xml version="1.0" encoding="UTF-8"?>
<svg width="407px" height="70px" viewBox="0 0 407 70" version="1.1" xmlns="http://www.w3.org/2000/svg" xmlns:xlink="http://www.w3.org/1999/xlink">
    <!-- Generator: Sketch 41 (35326) - http://www.bohemiancoding.com/sketch -->
    <title>primeng-text</title>
    <desc>Created with Sketch.</desc>
    <defs></defs>
    <g id="Page-1" stroke="none" stroke-width="1" fill="none" fill-rule="evenodd">
        <g id="primeng-text">
            <path d="M13.439,68.154 L0,68.154 L0,1 L26.871,1 C29.335,1 31.711,1.324 34.001,1.96 C36.268,2.602 38.396,3.509 40.391,4.68 C42.368,5.848 44.178,7.253 45.82,8.895 C47.463,10.535 48.868,12.353 50.036,14.345 C51.21,16.348 52.106,18.485 52.747,20.766 C53.395,23.047 53.708,25.412 53.708,27.882 C53.708,31.566 53.002,35.04 51.603,38.301 C50.204,41.565 48.273,44.413 45.851,46.844 C43.404,49.281 40.553,51.2 37.304,52.606 C34.037,54.011 30.562,54.714 26.872,54.714 L13.44,54.714 L13.44,68.154 L13.439,68.154 Z M13.439,14.445 L13.439,41.324 L26.871,41.324 C28.722,41.324 30.444,40.969 32.069,40.269 C33.695,39.566 35.123,38.609 36.331,37.39 C37.557,36.169 38.506,34.741 39.211,33.105 C39.916,31.468 40.269,29.726 40.269,27.884 C40.269,26.039 39.916,24.304 39.211,22.662 C38.506,21.023 37.557,19.595 36.331,18.378 C35.123,17.16 33.695,16.204 32.069,15.495 C30.444,14.793 28.721,14.446 26.871,14.446 L13.439,14.446 L13.439,14.445 Z" id="Shape" fill="#404C51"></path>
            <path d="M75.444,68.154 L62,68.154 L62,1 L88.883,1 C91.334,1 93.716,1.324 96.007,1.96 C98.274,2.602 100.396,3.509 102.396,4.68 C104.375,5.848 106.172,7.253 107.814,8.895 C109.462,10.535 110.862,12.353 112.036,14.345 C113.21,16.348 114.112,18.485 114.748,20.766 C115.395,23.047 115.72,25.412 115.72,27.882 C115.72,30.189 115.418,32.441 114.835,34.624 C114.263,36.812 113.441,38.889 112.365,40.854 C111.278,42.817 109.966,44.627 108.404,46.287 C106.842,47.938 105.097,49.375 103.159,50.592 L110.602,68.153 L96.326,68.153 L90.473,54.622 L75.445,54.714 L75.445,68.154 L75.444,68.154 Z M75.444,14.445 L75.444,41.324 L88.882,41.324 C90.721,41.324 92.444,40.969 94.08,40.269 C95.693,39.566 97.121,38.609 98.336,37.39 C99.556,36.169 100.522,34.741 101.216,33.105 C101.927,31.468 102.268,29.726 102.268,27.884 C102.268,26.039 101.927,24.304 101.216,22.662 C100.522,21.023 99.556,19.595 98.336,18.378 C97.121,17.16 95.693,16.204 94.08,15.495 C92.443,14.793 90.721,14.446 88.882,14.446 L75.444,14.446 L75.444,14.445 Z" id="Shape" fill="#404C51"></path>
            <polygon id="Shape" fill="#404C51" points="137.443 68.154 124 68.154 124 1 137.443 1"></polygon>
            <polygon id="Shape" fill="#404C51" points="273.033 68.154 227 68.154 227 1 273.033 1 273.033 14.444 240.437 14.444 240.437 27.882 262.486 27.882 262.486 41.322 240.437 41.322 240.437 54.714 273.033 54.714"></polygon>
            <path d="M202.854,0 C200.765,0 199.378,0.995 198.481,2.691 L183.287,31.071 C182.888,31.866 182.586,32.363 182.188,32.363 C181.793,32.363 181.494,31.865 181.094,31.071 L165.898,2.691 C165.002,0.995 163.613,0 161.526,0 L154.574,0 C152.486,0 151,1.292 151,3.385 L151,63.178 L151,66.742 L151,68.133 L152.688,68.133 L163.417,68.133 L165.002,68.133 L165.002,66.144 L165.002,63.178 L165.002,30.473 C165.002,29.776 165.302,29.675 165.498,29.675 C165.8,29.675 165.996,29.875 166.291,30.371 L175.235,46.802 C175.929,47.997 176.924,48.497 178.219,48.497 L186.157,48.497 C187.453,48.497 188.447,47.997 189.141,46.802 L198.075,30.371 C198.381,29.874 198.579,29.675 198.879,29.675 C199.075,29.675 199.377,29.776 199.377,30.473 L199.377,63.178 L199.377,66.144 L199.377,68.133 L200.96,68.133 L211.689,68.133 L213.378,68.133 L213.378,66.742 L213.378,63.178 L213.378,3.484 C213.38,1.393 211.893,0 209.799,0 L202.854,0 Z" id="Shape" fill="#404C51"></path>
            <polygon id="Shape" fill="#DD0031" points="339.736264 68.288491 325.34989 68.288491 299.444396 23.992138 299.444396 68.288491 286 68.288491 286 1 300.384176 1 326.294066 45.340818 326.294066 1 339.736264 1"></polygon>
            <path d="M393.133626,31.352956 L393.133626,31.426038 L380.293187,31.426038 L380.293187,44.873962 L393.133626,44.873962 L393.133626,53.816352 C391.693187,54.540126 390.18022,55.102767 388.585934,55.508679 C386.995165,55.914591 385.353846,56.121509 383.666813,56.121509 C380.730989,56.121509 377.97978,55.556667 375.400879,54.429623 C372.82022,53.30434 370.567033,51.771384 368.630769,49.832516 C366.691868,47.893208 365.160879,45.623711 364.040879,43.028868 C362.915604,40.431384 362.351648,37.647233 362.351648,34.677296 C362.351648,31.736415 362.915604,28.972956 364.040879,26.395723 C365.161319,23.813208 366.691868,21.560881 368.630769,19.636981 C370.567033,17.712642 372.82022,16.189371 375.400879,15.062327 C377.979341,13.936164 380.730989,13.373962 383.666813,13.373962 C386.602637,13.373962 389.396923,13.960377 392.053626,15.132767 C394.706813,16.305597 397.048352,17.924403 399.077802,19.989623 L406.107253,8.258679 C402.984615,5.598239 399.50022,3.558113 395.663297,2.136101 C391.816703,0.711447 387.82022,0 383.666374,0 C380.480879,0 377.411868,0.414717 374.461538,1.24327 C371.508132,2.071384 368.751648,3.23673 366.190769,4.739308 C363.632967,6.241006 361.291429,8.046478 359.166154,10.159686 C357.043956,12.270252 355.229011,14.615472 353.733626,17.196667 C352.232967,19.777421 351.067692,22.539119 350.241319,25.476918 C349.412747,28.417358 349,31.483711 349,34.676415 C349,37.868239 349.412747,40.947358 350.241319,43.918176 C351.067692,46.891635 352.232967,49.66478 353.733626,52.247296 C355.229011,54.82673 357.043956,57.174151 359.166154,59.282956 C361.291868,61.396164 363.632967,63.211321 366.190769,64.724025 C368.751648,66.245094 371.508571,67.417925 374.461538,68.247358 C377.411868,69.076792 380.480879,69.490189 383.666374,69.490189 C387.82022,69.490189 391.816703,68.779182 395.663297,67.35673 C399.50022,65.932516 402.984615,63.89239 406.107253,61.23195 L406.107253,44.873082 L406.107253,31.425157 L393.201319,31.425157 L393.133626,31.352956 L393.133626,31.352956 Z" id="Shape" fill="#DD0031"></path>
        </g>
    </g>
</svg>
